X:1
T:Der Abendwind
T:Carl Reinecke
T:Adolf Schults
T:Der Abendwind
T:CPDL   —   Creative Commons Attribution Non Commercial 3.0
T:CPDL   —   Creative Commons Attribution Non Commercial 3.0
T:CPDL   —   Creative Commons Attribution Non Commercial 3.0
C:Carl Reinecke
Z:Adolf Schults
Z:CPDL   —   Creative Commons Attribution Non Commercial 3.0
%%score [ ( 1 2 ) 3 4 ]
L:1/8
Q:1/4=80
M:3/4
K:Ab
V:1 treble-8 nm="Tenor"
V:2 treble-8 
V:3 bass nm="Bass\n1"
V:4 bass nm="Bass\n2"
V:1
"^Andante, un poco mosso" z z2 | z6 | z2 z!p! c d>B | c3 e d>B |!<(! cc f3 c!<)! | %5
w: ||1. Wie säu- selt|lind der A- bend-|wind, den Blu- men|
w: ||2. Dann a- ber|sagt er gu- te|Nacht den Vö- ge-|
!>(! e>e ee =de!>)! | c3!p! c B>c | A2 z!pp! e[Q:1/4=76]"^un poco ritard." B>c | A3 A A>A | %9
w: zu, bis al- le, al- le|sind in gu- ter|Ruh’, in gu- ter|Ruh, er säu- selt|
w: lein im stil- len, stil- len|Hain und schlum- mert|ein, und schlum- mert|ein, dann a- ber|
 A3[Q:1/4=80]"^a tempo" A A>A | A3 ^G G>G | =A3 A A^G |!<(! =G>G!<)! G!>(!G eG!>)! | %13
w: lind, er säu- selt|lind den Blu- men|zu, bis al- le,|al- le sind in gu- ter|
w: sagt, dann a- ber|sagt er gu- te|Nacht den Vö- ge\-,|Vö- ge- lein und schlum- mert|
 A2 z!pp! e f=d | ec _d=B c | e | dB c_c BG | AA A2 A2 | !fermata!A3 |] %19
w: Ruh’! Wie säu- selt|lind der A- bend- wind|den|Blu- men zu, bis al- le|sind in gu- ter|Ruh’.|
w: ein! Dann a- ber|sagt er gu- te Nacht|den|Vö- ge- lein im stil- len|Hain, im stil- len|Hain.|
V:2
 x3 | x6 | x2 x A F>G | A3 E F>G | AA c3 c | c>c cc =BB | c3 E G>G | A2 x E F>G | A3 z z2 | %9
w: |||||||||
w: |||||||||
 z3 _G G>G | _F4 =E2 | =EE E3 E | _E>E EE GE | E2 x c c=B | c__B AA A | A | AG AA F_F | %17
w: |lind den|Blu- men zu, bis||||||
w: |sagt er|gu- te Nacht den||||||
 E>=F E>F E>F | E3 |] %19
w: ||
w: ||
V:3
!mf! C,D,>B,, | E,3!p! C, D,>B,, | E,E, E,3 E, | E,E, E,3 E, |!<(! E,E, A,3 A,!<)! | %5
w: 1. Wie säu- selt|lind der A- bend-|wind, wie säu- selt|lind der A- bend-|wind, den Blu- men|
w: 2. Dann a- ber|sagt er gu- te|Nacht den Vö- ge-|lein im stil- len|Hain den Vö- ge-|
!>(! G,>G, G,G, F,G,!>)! | E,!p!E, (E,2 _D,>)E, | C,!pp!E, ((E,2 D,>))E, | C,3 z z2 | z6 | %10
w: zu, bis al- le, al- le|sind in gu- * ter|Ruh’, in gu- * ter|Ruh’,||
w: lein im stil- len, stil- len|Hain und schlum- * mert|ein, und schlum- * mert|ein,||
 z =E, E,>E, =D,D, | ^C,>C, C,3 C, |!<(! _D,>D,!<)! D,!>(!D, D,D,!>)! | C,2 z!pp! _G, A,F, | %14
w: er säu- selt lind den|Blu- men zu, bis|al- le sind in gu- ter|Ruh’! Wie säu- selt|
w: dann a- ber sagt er|gu- te Nacht den|Vö- ge- lein und schlum- mert|ein! Dann a- ber|
 _G,G, F,_F, E, | _G, | F,_F, E,E, =D,_D, | C,>D, C,>D, C,>D, | !fermata!C,3 |] %19
w: lind der A- bend- wind|den|Blu- men zu, bis al- le|sind in gu- * ter _|Ruh’.|
w: sagt er gu- te Nacht|den|Vö- ge- lein im stil- len|Hain, im stil- * len _|Hain|
V:4
 z z2 | z6 | z4 z!p! E, | A,,A,, A,,3 A,, |!<(! A,,A,, F,,2 A,,2!<)! | %5
w: ||1. Wie|säu- selt lind der|A- bend- wind den|
w: ||2. Dann|a- ber sagt er|gu- te Nacht den|
!>(! C,>G,, G,,G,, G,,G,,!>)! | G,,3!p! [E,,E,] [E,,E,]>[E,,E,] | %7
w: Blu- men zu, bis al- le|sind in gu- ter|
w: Vö- ge- lein im stil- len|Hain und schlum- mert|
 A,,2 z!pp! [E,,E,] [E,,E,]>[E,,E,] | A,,3 z z2 | z6 | z6 | z6 | %12
w: Ruh, in gu- ter|Ruh,||||
w: ein, und schlum- mert|ein,||||
!<(! z E,!<)! E,2!>(! [E,,E,]2!>)! | A,,!pp!A,, A,,4- | A,,A,, A,,3 | A,, | A,,A,, A,,4 | %17
w: in gu- ter|Ruh, bis al-|* le sind,|bis|al- le sind|
w: und schlum- mert|ein! Dann a-|* ber sagt|im|stil- len Hain,|
 A,,2 A,,2 A,,2 | !fermata!A,,3 |] %19
w: in gu- ter|Ruh’.|
w: im stil- len|Hain.|

